X: 11
T:Long Journey Home
C:Traditional
S:https://www.idahobluegrassassociation.org/beginner-jam/category/long-journey-home
R:Bluegrass
M:4/4
L:1/8
K:D
"D"A2A4B2|d2d2e2d2|f2f4e2|d4z4|
w: Lost all my mon-ey but a two dol-lar bill
"D"f2f4e2|d4A4|"G"B2 d4B2|"D"A4z4|
w: Two dol-lar bill boys, two dol-lar bill
"D"A2A4B2|d2d2e2d2|f2f4e2|d4z2f2|
w: Lost all my mon-ey but a two dol-lar bill. I'm
"D"a4f4|"A"e4f2e2|"D"d8|
w: on my long jour-ney home.
W: 2. Cloudy in the West and it looks like rain
W:
W: 3. It’s dark and a raining and I want to go home
W:
W: 4. Homesick and lonesome and I’m feeling kind of blue
W:
W: 5. There’s black smoke a rising and it surely is a train

